**harm	**harte	**timestamp	**phrase	**leadinstrument	**kern
*M4/4	*M4/4	*	*	*	*
*F:	*F:	*	*	*	*F:
1r;	N	0	.	r	1r;
=1	=1	=1	=1	=1	=1
*>A_intro	*>A_intro	*>A_intro	*>A_intro	*>A_intro	*>A_intro
2I	F:maj	0.534	newline	piano	2F 2a 2cc
2IV	B-:maj	1.197	.	piano	2B- 2dd 2ff
=2	=2	=2	=2	=2	=2
2I	F:maj	1.86	.	piano	2F 2a 2cc
2IV	B-:maj	2.523	.	piano	2B- 2dd 2ff
=3	=3	=3	=3	=3	=3
2I	F:maj	3.187	.	piano	2F 2a 2cc
2IV	B-:maj	3.85	.	piano	2B- 2dd 2ff
=4	=4	=4	=4	=4	=4
1I	F:maj	4.513	.	piano	1F 1a 1cc
=5	=5	=5	=5	=5	=5
*>A_chorus	*>A_chorus	*>A_chorus	*>A_chorus	*>A_chorus	*>A_chorus
2I	F:maj	5.839	newline	voice	2F 2a 2cc
2IV	B-:maj	6.501	.	voice	2B- 2dd 2ff
=6	=6	=6	=6	=6	=6
2I	F:maj	7.162	.	voice	2F 2a 2cc
2IV	B-:maj	7.824	.	voice	2B- 2dd 2ff
=7	=7	=7	=7	=7	=7
2I	F:maj	8.486	.	voice	2F 2a 2cc
2IV	B-:maj	9.148	.	voice	2B- 2dd 2ff
=8	=8	=8	=8	=8	=8
2I	F:maj	9.809	.	voice	2F 2a 2cc
2IV	B-:maj	10.471	.	voice	2B- 2dd 2ff
=9	=9	=9	=9	=9	=9
2I	F:maj	11.133	newline	voice	2F 2a 2cc
2IV	B-:maj	11.787	.	voice	2B- 2dd 2ff
=10	=10	=10	=10	=10	=10
2I	F:maj	12.441	.	voice	2F 2a 2cc
2IV	B-:maj	13.095	.	voice	2B- 2dd 2ff
=11	=11	=11	=11	=11	=11
2I	F:maj	13.75	.	voice	2F 2a 2cc
2IV	B-:maj	14.404	.	voice	2B- 2dd 2ff
=12	=12	=12	=12	=12	=12
2I	F:maj	15.058	.	voice	2F 2a 2cc
2IV	B-:maj	15.712	.	voice	2B- 2dd 2ff
=13	=13	=13	=13	=13	=13
1I	F:maj	16.367	.	voice	1F 1a 1cc
=14	=14	=14	=14	=14	=14
*>A_verse	*>A_verse	*>A_verse	*>A_verse	*>A_verse	*>A_verse
2I	F:maj	17.675	newline	voice	2F 2a 2cc
2IV	B-:maj	18.341	.	voice	2B- 2dd 2ff
=15	=15	=15	=15	=15	=15
2I	F:maj	19.007	.	voice	2F 2a 2cc
2IV	B-:maj	19.673	.	voice	2B- 2dd 2ff
=16	=16	=16	=16	=16	=16
2I	F:maj	20.34	.	voice	2F 2a 2cc
2IV	B-:maj	21.006	.	voice	2B- 2dd 2ff
=17	=17	=17	=17	=17	=17
2I	F:maj	21.672	.	voice	2F 2a 2cc
2IV	B-:maj	22.338	.	voice	2B- 2dd 2ff
=18	=18	=18	=18	=18	=18
2I	F:maj	23.004	newline	voice	2F 2a 2cc
2IV	B-:maj	23.651	.	voice	2B- 2dd 2ff
=19	=19	=19	=19	=19	=19
2I	F:maj	24.298	.	voice	2F 2a 2cc
2IV	B-:maj	24.944	.	voice	2B- 2dd 2ff
=20	=20	=20	=20	=20	=20
2I	F:maj	25.591	.	voice	2F 2a 2cc
2IV	B-:maj	26.238	.	voice	2B- 2dd 2ff
=21	=21	=21	=21	=21	=21
1I	F:maj	26.885	.	voice	1F 1a 1cc
=22	=22	=22	=22	=22	=22
*>B_bridge	*>B_bridge	*>B_bridge	*>B_bridge	*>B_bridge	*>B_bridge
1IV	B-:maj	28.178	newline	.	1B- 1dd 1ff
=23	=23	=23	=23	=23	=23
2IV	B-:maj	29.497	.	.	2B- 2dd 2ff
2-VII	E-:maj	30.156	.	.	2E- 2g 2b-
=24	=24	=24	=24	=24	=24
1IV	B-:maj	30.815	.	.	1B- 1dd 1ff
=25	=25	=25	=25	=25	=25
2IV	B-:maj	32.133	.	.	2B- 2dd 2ff
2-VII	E-:maj	32.793	.	.	2E- 2g 2b-
=26	=26	=26	=26	=26	=26
1IV	B-:maj	33.452	.	.	1B- 1dd 1ff
=27	=27	=27	=27	=27	=27
2IV	B-:maj	34.77	.	.	2B- 2dd 2ff
2-VII	E-:maj	35.429	.	.	2E- 2g 2b-
=28	=28	=28	=28	=28	=28
1IV	B-:maj	36.089	.	.	1B- 1dd 1ff
=29	=29	=29	=29	=29	=29
2IV	B-:maj	37.407	.	.	2B- 2dd 2ff
2-VII	E-:maj	38.066	.	.	2E- 2g 2b-
=30	=30	=30	=30	=30	=30
1IV	B-:maj	38.725	.	.	1B- 1dd 1ff
=31	=31	=31	=31	=31	=31
2IV	B-:maj	40.044	.	.	2B- 2dd 2ff
2-VII	E-:maj	40.703	.	.	2E- 2g 2b-
=32	=32	=32	=32	=32	=32
1IV	B-:maj	41.362	.	.	1B- 1dd 1ff
=33	=33	=33	=33	=33	=33
2IV	B-:maj	42.68	.	.	2B- 2dd 2ff
2-VII	E-:maj	43.34	.	.	2E- 2g 2b-
=34	=34	=34	=34	=34	=34
1V7	C:7	43.999	newline	.	1C 1e 1g 1b-
=35	=35	=35	=35	=35	=35
1V7	C:7	45.335	.	.	1C 1e 1g 1b-
=36	=36	=36	=36	=36	=36
1V7	C:7	46.672	.	.	1C 1e 1g 1b-
=37	=37	=37	=37	=37	=37
1V7	C:7	48.009	.	.	1C 1e 1g 1b-
=38	=38	=38	=38	=38	=38
*>A_chorus	*>A_chorus	*>A_chorus	*>A_chorus	*>A_chorus	*>A_chorus
2I	F:maj	49.345	newline	.	2F 2a 2cc
2IV	B-:maj	50.018	.	.	2B- 2dd 2ff
=39	=39	=39	=39	=39	=39
2I	F:maj	50.69	.	.	2F 2a 2cc
2IV	B-:maj	51.362	.	.	2B- 2dd 2ff
=40	=40	=40	=40	=40	=40
2I	F:maj	52.034	.	.	2F 2a 2cc
2IV	B-:maj	52.706	.	.	2B- 2dd 2ff
=41	=41	=41	=41	=41	=41
2I	F:maj	53.378	.	.	2F 2a 2cc
2IV	B-:maj	54.05	.	.	2B- 2dd 2ff
=42	=42	=42	=42	=42	=42
2I	F:maj	54.723	newline	voice	2F 2a 2cc
2IV	B-:maj	55.372	.	voice	2B- 2dd 2ff
=43	=43	=43	=43	=43	=43
2I	F:maj	56.022	.	voice	2F 2a 2cc
2IV	B-:maj	56.671	.	voice	2B- 2dd 2ff
=44	=44	=44	=44	=44	=44
2I	F:maj	57.321	.	voice	2F 2a 2cc
2IV	B-:maj	57.97	.	voice	2B- 2dd 2ff
=45	=45	=45	=45	=45	=45
2I	F:maj	58.62	.	voice	2F 2a 2cc
2IV	B-:maj	59.269	.	voice	2B- 2dd 2ff
=46	=46	=46	=46	=46	=46
1I	F:maj	59.919	.	voice	1F 1a 1cc
=47	=47	=47	=47	=47	=47
1I	F:maj	61.218	.	voice	1F 1a 1cc
=48	=48	=48	=48	=48	=48
*>A_solo	*>A_solo	*>A_solo	*>A_solo	*>A_solo	*>A_solo
2I	F:maj	62.517	newline	baritone saxophone	2F 2a 2cc
2IV	B-:maj	63.158	.	baritone saxophone	2B- 2dd 2ff
=49	=49	=49	=49	=49	=49
2I	F:maj	63.799	.	baritone saxophone	2F 2a 2cc
2IV	B-:maj	64.44	.	baritone saxophone	2B- 2dd 2ff
=50	=50	=50	=50	=50	=50
2I	F:maj	65.081	.	baritone saxophone	2F 2a 2cc
2IV	B-:maj	65.722	.	baritone saxophone	2B- 2dd 2ff
=51	=51	=51	=51	=51	=51
2I	F:maj	66.363	.	baritone saxophone	2F 2a 2cc
2IV	B-:maj	67.004	.	baritone saxophone	2B- 2dd 2ff
=52	=52	=52	=52	=52	=52
2I	F:maj	67.644	newline	baritone saxophone	2F 2a 2cc
2IV	B-:maj	68.293	.	baritone saxophone	2B- 2dd 2ff
=53	=53	=53	=53	=53	=53
2I	F:maj	68.942	.	baritone saxophone	2F 2a 2cc
2IV	B-:maj	69.591	.	baritone saxophone	2B- 2dd 2ff
=54	=54	=54	=54	=54	=54
2I	F:maj	70.24	.	baritone saxophone	2F 2a 2cc
2IV	B-:maj	70.889	.	baritone saxophone	2B- 2dd 2ff
=55	=55	=55	=55	=55	=55
2I	F:maj	71.537	.	baritone saxophone	2F 2a 2cc
2IV	B-:maj	72.186	.	baritone saxophone	2B- 2dd 2ff
=56	=56	=56	=56	=56	=56
*>A_solo	*>A_solo	*>A_solo	*>A_solo	*>A_solo	*>A_solo
2I	F:maj	72.835	newline	baritone saxophone	2F 2a 2cc
2IV	B-:maj	73.491	.	baritone saxophone	2B- 2dd 2ff
=57	=57	=57	=57	=57	=57
2I	F:maj	74.146	.	baritone saxophone	2F 2a 2cc
2IV	B-:maj	74.802	.	baritone saxophone	2B- 2dd 2ff
=58	=58	=58	=58	=58	=58
2I	F:maj	75.457	.	baritone saxophone	2F 2a 2cc
2IV	B-:maj	76.113	.	baritone saxophone	2B- 2dd 2ff
=59	=59	=59	=59	=59	=59
2I	F:maj	76.768	.	baritone saxophone	2F 2a 2cc
2IV	B-:maj	77.424	.	baritone saxophone	2B- 2dd 2ff
=60	=60	=60	=60	=60	=60
2I	F:maj	78.079	newline	baritone saxophone	2F 2a 2cc
2IV	B-:maj	78.723	.	baritone saxophone	2B- 2dd 2ff
=61	=61	=61	=61	=61	=61
2I	F:maj	79.366	.	baritone saxophone	2F 2a 2cc
2IV	B-:maj	80.009	.	baritone saxophone	2B- 2dd 2ff
=62	=62	=62	=62	=62	=62
2I	F:maj	80.652	.	baritone saxophone	2F 2a 2cc
2IV	B-:maj	81.296	.	baritone saxophone	2B- 2dd 2ff
=63	=63	=63	=63	=63	=63
1I	F:maj	81.939	.	baritone saxophone	1F 1a 1cc
=64	=64	=64	=64	=64	=64
*>B_bridge	*>B_bridge	*>B_bridge	*>B_bridge	*>B_bridge	*>B_bridge
1IV	B-:maj	83.226	newline	voice	1B- 1dd 1ff
=65	=65	=65	=65	=65	=65
2IV	B-:maj	84.541	.	voice	2B- 2dd 2ff
2-VII	E-:maj	85.199	.	voice	2E- 2g 2b-
=66	=66	=66	=66	=66	=66
1IV	B-:maj	85.856	.	voice	1B- 1dd 1ff
=67	=67	=67	=67	=67	=67
2IV	B-:maj	87.172	.	voice	2B- 2dd 2ff
2-VII	E-:maj	87.829	.	voice	2E- 2g 2b-
=68	=68	=68	=68	=68	=68
1IV	B-:maj	88.487	.	voice	1B- 1dd 1ff
=69	=69	=69	=69	=69	=69
2IV	B-:maj	89.802	.	voice	2B- 2dd 2ff
2-VII	E-:maj	90.46	.	voice	2E- 2g 2b-
=70	=70	=70	=70	=70	=70
1IV	B-:maj	91.118	.	voice	1B- 1dd 1ff
=71	=71	=71	=71	=71	=71
2IV	B-:maj	92.433	.	voice	2B- 2dd 2ff
2-VII	E-:maj	93.091	.	voice	2E- 2g 2b-
=72	=72	=72	=72	=72	=72
1IV	B-:maj	93.748	.	voice	1B- 1dd 1ff
=73	=73	=73	=73	=73	=73
2IV	B-:maj	95.064	.	voice	2B- 2dd 2ff
2-VII	E-:maj	95.722	.	voice	2E- 2g 2b-
=74	=74	=74	=74	=74	=74
1IV	B-:maj	96.379	.	voice	1B- 1dd 1ff
=75	=75	=75	=75	=75	=75
2IV	B-:maj	97.695	.	voice	2B- 2dd 2ff
2-VII	E-:maj	98.352	.	voice	2E- 2g 2b-
=76	=76	=76	=76	=76	=76
1V7	C:7	99.01	newline	voice	1C 1e 1g 1b-
=77	=77	=77	=77	=77	=77
1V7	C:7	100.289	.	voice	1C 1e 1g 1b-
=78	=78	=78	=78	=78	=78
1V7	C:7	101.568	.	voice	1C 1e 1g 1b-
=79	=79	=79	=79	=79	=79
1V7	C:7	102.847	.	voice	1C 1e 1g 1b-
=80	=80	=80	=80	=80	=80
*>A_chorus	*>A_chorus	*>A_chorus	*>A_chorus	*>A_chorus	*>A_chorus
2I	F:maj	104.126	newline	voice	2F 2a 2cc
2IV	B-:maj	104.784	.	voice	2B- 2dd 2ff
=81	=81	=81	=81	=81	=81
2I	F:maj	105.442	.	voice	2F 2a 2cc
2IV	B-:maj	106.101	.	voice	2B- 2dd 2ff
=82	=82	=82	=82	=82	=82
2I	F:maj	106.759	.	voice	2F 2a 2cc
2IV	B-:maj	107.418	.	voice	2B- 2dd 2ff
=83	=83	=83	=83	=83	=83
2I	F:maj	108.076	.	voice	2F 2a 2cc
2IV	B-:maj	108.734	.	voice	2B- 2dd 2ff
=84	=84	=84	=84	=84	=84
2I	F:maj	109.393	newline	voice	2F 2a 2cc
2IV	B-:maj	110.057	.	voice	2B- 2dd 2ff
=85	=85	=85	=85	=85	=85
2I	F:maj	110.722	.	voice	2F 2a 2cc
2IV	B-:maj	111.386	.	voice	2B- 2dd 2ff
=86	=86	=86	=86	=86	=86
2I	F:maj	112.051	.	voice	2F 2a 2cc
2IV	B-:maj	112.715	.	voice	2B- 2dd 2ff
=87	=87	=87	=87	=87	=87
2I	F:maj	113.379	.	voice	2F 2a 2cc
2IV	B-:maj	114.044	.	voice	2B- 2dd 2ff
=88	=88	=88	=88	=88	=88
*>A_outro	*>A_outro	*>A_outro	*>A_outro	*>A_outro	*>A_outro
2I	F:maj	114.708	newline	voice	2F 2a 2cc
2IV	B-:maj	115.355	.	voice	2B- 2dd 2ff
=89	=89	=89	=89	=89	=89
2I	F:maj	116.002	.	voice	2F 2a 2cc
2IV	B-:maj	116.648	.	voice	2B- 2dd 2ff
=90	=90	=90	=90	=90	=90
2I	F:maj	117.295	.	voice	2F 2a 2cc
2IV	B-:maj	117.942	.	voice	2B- 2dd 2ff
=91	=91	=91	=91	=91	=91
2I	F:maj	118.588	.	voice	2F 2a 2cc
2IV	B-:maj	119.235	.	voice	2B- 2dd 2ff
=92	=92	=92	=92	=92	=92
2I	F:maj	119.882	newline	fadeout	2F 2a 2cc
2IV	B-:maj	120.54	.	fadeout	2B- 2dd 2ff
=93	=93	=93	=93	=93	=93
2I	F:maj	121.199	.	fadeout	2F 2a 2cc
2IV	B-:maj	121.857	.	fadeout	2B- 2dd 2ff
=94	=94	=94	=94	=94	=94
2I	F:maj	122.516	.	fadeout	2F 2a 2cc
2IV	B-:maj	123.174	.	fadeout	2B- 2dd 2ff
=95	=95	=95	=95	=95	=95
2I	F:maj	123.833	.	fadeout	2F 2a 2cc
2IV	B-:maj	124.492	.	fadeout	2B- 2dd 2ff
=96	=96	=96	=96	=96	=96
2I	F:maj	125.15	newline	voice	2F 2a 2cc
2IV	B-:maj	125.737	.	voice	2B- 2dd 2ff
=97	=97	=97	=97	=97	=97
2I	F:maj	126.324	.	voice	2F 2a 2cc
2IV	B-:maj	126.911	.	voice	2B- 2dd 2ff
1r;	N	127.497	.	r	1r;
1r;	N	129.541	.	r	1r;
*-	*-	*-	*-	*-	*-
!!!OTL: Lonely Weekends
!!!COC: Charlie Rich
!!!BillboardChartDate: 1960/07/11, 1960/06/27
!!!BillboardPeak: 22, 22
!!!BillboardWeeksOnChart: 21, 21
!!!SampleTargetRank: 66, 34
!!!SampleActualRank: 65, 34
!!!SampleID#: 1113, 1123
!!!RDF**harmony: **recip + pitch class of root + harmonic quality
!!!RDF**harte: Chris Harte's syntax, used by MIREX
!!!RDF**phrase: newline = linebreak in original McGill transcription
!!!RDF**timestamp: McGill audio timestamp in seconds
!!!RDF**leadinstrument: original McGill primary instrumentation annotation
!!!RDT: 2017/01/12/
!!!ENC: Nathaniel Condit-Schultz
!!!EST: Awating manual error checking and editing.
